X: 1
T: Man Who Died And Rose Again, The
M: 6/8
L: 1/8
R: jig
K: Cmaj
|:E|A3 ABd|eca a2g|cde fdc|dBG dBG|
c3 c2e|ede e/f/ge|age age|dBG G2:|
